X:132
T:Rinettan's Daughter
R:Strathspey
N:No.48
B:The Athole Collection
O:Scottish
M:C
L:1/8
K:Aminor
c|E/F/G cG A2 AG c>G E2|G>Ac>G A/A/A A>B|c>d e>d c>AA:|
a|geea g>ee>d|c<GA<G c>G E2|G>Ac>G A/A/A A>B|c>de>d c>A Aa|
g<e e>a g<e e>d|c>GG>B c>G E2|G>Ac>G A/A/A A>B|c>de>g d<ec>G||
